**kern	**silbe	**kern	**silbe	**harmony	**chordsym	**phrase	**timestamp	**leadinstrument
*ICvox	*	*ICvox	*	*M4/4	*M4/4	*	*	*
*G-:	*	*G-:	*	*B:	*B:	*	*	*
*M4/4	*	*M4/4	*	*	*	*	*	*
*clefC3	*	*clefG2	*	*	*	*	*	*
r;	.	r;	.	1r;	r	.	0	r
=1	=1	=1	=1	=1	=1	=1	=1	=1
*>Letter>A	*>Letter>A	*>Letter>A	*>Letter>A	*>Letter>A	*>Letter>A	*>Letter>A	*>Letter>A	*>Letter>A
*>Label>Intro	*>Label>Intro	*>Label>Intro	*>Label>Intro	*>Label>Intro	*>Label>Intro	*>Label>Intro	*>Label>Intro	*>Label>Intro
1r	.	1r	.	1BM	B:maj (B D# F#)	newline	0.441	synthesizer
=2	=2	=2	=2	=2	=2	=2	=2	=2
1r	.	1r	.	1F#M	F#:maj (F# A# C#)	.	.	synthesizer
=3	=3	=3	=3	=3	=3	=3	=3	=3
1r	.	1r	.	1BM	B:maj (B D# F#)	.	.	synthesizer
=4	=4	=4	=4	=4	=4	=4	=4	=4
1r	.	1r	.	1F#M	F#:maj (F# A# C#)	.	.	synthesizer
=5	=5	=5	=5	=5	=5	=5	=5	=5
1r	.	1r	.	1C#mm	C#:min11 (E C# B F#)	newline	10.157	synthesizer
=6	=6	=6	=6	=6	=6	=6	=6	=6
1r	.	1r	.	1F#M	F#:maj (F# A# C#)	.	.	synthesizer
=7	=7	=7	=7	=7	=7	=7	=7	=7
1r	.	1r	.	1C#M	C#:maj (C# E# G#)	.	.	synthesizer
=8	=8	=8	=8	=8	=8	=8	=8	=8
1r	.	1r	.	1C#M	C#:maj (C# E# G#)	.	.	synthesizer
=9	=9	=9	=9	=9	=9	=9	=9	=9
*>Letter>A	*>Letter>A	*>Letter>A	*>Letter>A	*>Letter>A	*>Letter>A	*>Letter>A	*>Letter>A	*>Letter>A
*>Label>Verse	*>Label>Verse	*>Label>Verse	*>Label>Verse	*>Label>Verse	*>Label>Verse	*>Label>Verse	*>Label>Verse	*>Label>Verse
2r	.	1r	.	1BM	B:maj (B D# F#)	newline	19.921	voice
8A-	Out	.	.	.	.	.	.	.
8c-	from	.	.	.	.	.	.	.
8e-	the	.	.	.	.	.	.	.
[8d-	ru	.	.	.	.	.	.	.
=10	=10	=10	=10	=10	=10	=10	=10	=10
8d-]	_	1r	.	1F#M	F#:maj (F# A# C#)	.	.	voice
8e-	ins,	.	.	.	.	.	.	.
4r	.	.	.	.	.	.	.	.
2r	.	.	.	.	.	.	.	.
=11	=11	=11	=11	=11	=11	=11	=11	=11
2r	.	1r	.	1BM	B:maj (B D# F#)	.	.	voice
8A-	out	.	.	.	.	.	.	.
8c-	from	.	.	.	.	.	.	.
8e-	the	.	.	.	.	.	.	.
[8d-	wreck	.	.	.	.	.	.	.
=12	=12	=12	=12	=12	=12	=12	=12	=12
8d-]	_	1r	.	1F#M	F#:maj (F# A# C#)	.	.	voice
16~A-	age,	.	.	.	.	.	.	.
[16~G-	_	.	.	.	.	.	.	.
8G-]	_	.	.	.	.	.	.	.
8r	.	.	.	.	.	.	.	.
2r	.	.	.	.	.	.	.	.
=13	=13	=13	=13	=13	=13	=13	=13	=13
2r	.	1r	.	1C#mm	C#:min11 (E C# B F#)	newline	29.61	voice
8A-	can't	.	.	.	.	.	.	.
8c-	make	.	.	.	.	.	.	.
8e-	the	.	.	.	.	.	.	.
[8d-	same	.	.	.	.	.	.	.
=14	=14	=14	=14	=14	=14	=14	=14	=14
4d-]	_	1r	.	1F#M	F#:maj (F# A# C#)	.	.	voice
8c-	mis-	.	.	.	.	.	.	.
[8B-	-takes	.	.	.	.	.	.	.
4B-]	_	.	.	.	.	.	.	.
8G-	this	.	.	.	.	.	.	.
[8A-	time	.	.	.	.	.	.	.
=15	=15	=15	=15	=15	=15	=15	=15	=15
1A-]	_	1r	.	1C#M	C#:maj (C# E# G#)	.	.	voice
=16	=16	=16	=16	=16	=16	=16	=16	=16
1r	.	1r	.	1C#M	C#:maj (C# E# G#)	.	.	voice
=17	=17	=17	=17	=17	=17	=17	=17	=17
2r	.	1r	.	1BM	B:maj (B D# F#)	newline	39.323	voice
8A-	We	.	.	.	.	.	.	.
8c-	are	.	.	.	.	.	.	.
8e-	the	.	.	.	.	.	.	.
[8d-	chil	.	.	.	.	.	.	.
=18	=18	=18	=18	=18	=18	=18	=18	=18
8d-]	_	1r	.	1F#M	F#:maj (F# A# C#)	.	.	voice
8e-	dren,	.	.	.	.	.	.	.
4r	.	.	.	.	.	.	.	.
2r	.	.	.	.	.	.	.	.
=19	=19	=19	=19	=19	=19	=19	=19	=19
4r	.	1r	.	1BM	B:maj (B D# F#)	.	.	voice
8r	.	.	.	.	.	.	.	.
8D-	the	.	.	.	.	.	.	.
8A-	last	.	.	.	.	.	.	.
8B-	ge-	.	.	.	.	.	.	.
8c-	-ner-	.	.	.	.	.	.	.
8Aq	_	.	.	.	.	.	.	.
8B-	-a	.	.	.	.	.	.	.
=20	=20	=20	=20	=20	=20	=20	=20	=20
8A-	_	1r	.	1F#M	F#:maj (F# A# C#)	.	.	voice
8G-	tion,	.	.	.	.	.	.	.
4r	.	.	.	.	.	.	.	.
4f	(last	.	.	.	.	.	.	.
8r	.	.	.	.	.	.	.	.
16f	ge-	.	.	.	.	.	.	.
16f	-ner-	.	.	.	.	.	.	.
=21	=21	=21	=21	=21	=21	=21	=21	=21
8f	-a-	1r	.	1C#mm	C#:min11 (E C# B F#)	newline	49.056	voice
8f	-tion)	.	.	.	.	.	.	.
4r	.	.	.	.	.	.	.	.
8A-	we	.	.	.	.	.	.	.
8c-	are	.	.	.	.	.	.	.
8e-	the	.	.	.	.	.	.	.
[8d-	ones	.	.	.	.	.	.	.
=22	=22	=22	=22	=22	=22	=22	=22	=22
4d-]	_	1r	.	1F#M	F#:maj (F# A# C#)	.	.	voice
8c-	they	.	.	.	.	.	.	.
[8B-	left	.	.	.	.	.	.	.
4B-]	_	.	.	.	.	.	.	.
8G-	be-	.	.	.	.	.	.	.
[8A-	-hind	.	.	.	.	.	.	.
=23	=23	=23	=23	=23	=23	=23	=23	=23
2.A-]	_	1r	.	1C#M	C#:maj (C# E# G#)	.	.	voice
4r	.	.	.	.	.	.	.	.
=24	=24	=24	=24	=24	=24	=24	=24	=24
2r	.	1r	.	1C#M	C#:maj (C# E# G#)	.	.	voice
4r	.	.	.	.	.	.	.	.
8A-	And	.	.	.	.	.	.	.
8B-	I	.	.	.	.	.	.	.
=25	=25	=25	=25	=25	=25	=25	=25	=25
*>Letter>B	*>Letter>B	*>Letter>B	*>Letter>B	*>Letter>B	*>Letter>B	*>Letter>B	*>Letter>B	*>Letter>B
*>Label>Prechorus	*>Label>Prechorus	*>Label>Prechorus	*>Label>Prechorus	*>Label>Prechorus	*>Label>Prechorus	*>Label>Prechorus	*>Label>Prechorus	*>Label>Prechorus
8c-	won	1r	.	1EM	E:maj (E G# B)	newline	58.759	voice
8A-	_	.	.	.	.	.	.	.
8A-	der	.	.	.	.	.	.	.
8G-	when	.	.	.	.	.	.	.
16A-	we	.	.	.	.	.	.	.
16G-	_	.	.	.	.	.	.	.
8F-	_	.	.	.	.	.	.	.
8r	.	.	.	.	.	.	.	.
8c-	are	.	.	.	.	.	.	.
=26	=26	=26	=26	=26	=26	=26	=26	=26
*M2/4	*	*M2/4	*	*M2/4	*M2/4	*M2/4	*M2/4	*M2/4
8B-	e-	2r	.	2F#M	F#:maj (F# A# C#)	.	.	voice
8A-	-ver	.	.	.	.	.	.	.
8G-	gon-	.	.	.	.	.	.	.
8A-	-na	.	.	.	.	.	.	.
=27	=27	=27	=27	=27	=27	=27	=27	=27
*M4/4	*	*M4/4	*	*M4/4	*M4/4	*M4/4	*M4/4	*M4/4
4.E-	change,	1r	.	1C#mm	C#:min9 (C# E B D#)	.	.	voice
16E-	change	.	.	.	.	.	.	.
16D-	_	.	.	.	.	.	.	.
16C-	_	.	.	.	.	.	.	.
8.AA-	_	.	.	.	.	.	.	.
4r	.	.	.	.	.	.	.	.
=28	=28	=28	=28	=28	=28	=28	=28	=28
2r	.	1r	.	1C#mm	C#:min9 (C# E B D#)	.	.	voice
4r	.	.	.	.	.	.	.	.
8A-	Li-	.	.	.	.	.	.	.
8B-	-ving	.	.	.	.	.	.	.
=29	=29	=29	=29	=29	=29	=29	=29	=29
8c-	un	1r	.	1EM	E:maj (E G# B)	newline	67.272	voice
8A-	_	.	.	.	.	.	.	.
8A-	der	.	.	.	.	.	.	.
8G-	the	.	.	.	.	.	.	.
16A-	fear,	.	.	.	.	.	.	.
16G-	_	.	.	.	.	.	.	.
8F-	_	.	.	.	.	.	.	.
8r	.	.	.	.	.	.	.	.
8c-	'till	.	.	.	.	.	.	.
=30	=30	=30	=30	=30	=30	=30	=30	=30
*M2/4	*	*M2/4	*	*M2/4	*M2/4	*M2/4	*M2/4	*M2/4
8B-	no-	2r	.	2F#M	F#:maj (F# A# C#)	.	.	voice
8A-	-thing	.	.	.	.	.	.	.
8G-	else	.	.	.	.	.	.	.
8A-	re-	.	.	.	.	.	.	.
=31	=31	=31	=31	=31	=31	=31	=31	=31
*M4/4	*	*M4/4	*	*M4/4	*M4/4	*M4/4	*M4/4	*M4/4
1A-	-mains.	1r	.	1C#mm	C#:min9 (C# E B D#)	.	.	voice
=32	=32	=32	=32	=32	=32	=32	=32	=32
4r	.	1r	.	2F#M	F#:maj (F# A# C#)	.	.	voice
8b-	We	.	.	.	.	.	.	.
8b-	don't	.	.	.	.	.	.	.
8cc-	need	.	.	4EM	E:maj (G# E B)	.	.	voice
8cc-	a-	.	.	.	.	.	.	.
8b-	-no-	.	.	4F#M	F#:maj (F# A# C#)	.	.	voice
8b-	-ther	.	.	.	.	.	.	.
=33	=33	=33	=33	=33	=33	=33	=33	=33
*>Letter>C	*>Letter>C	*>Letter>C	*>Letter>C	*>Letter>C	*>Letter>C	*>Letter>C	*>Letter>C	*>Letter>C
*>Label>Chorus	*>Label>Chorus	*>Label>Chorus	*>Label>Chorus	*>Label>Chorus	*>Label>Chorus	*>Label>Chorus	*>Label>Chorus	*>Label>Chorus
4.a-	he	1r	.	2EM	E:maj (E G# B)	newline	75.779	voice
8g-	ro!	.	.	.	.	.	.	.
2r	.	.	.	2F#M	F#:maj (F# A# C#)	.	.	voice
=34	=34	=34	=34	=34	=34	=34	=34	=34
4r	.	1r	.	2F#M	F#:maj (F# A# C#)	.	.	voice
8b-	We	.	.	.	.	.	.	.
8b-	don't	.	.	.	.	.	.	.
8cc-	need	.	.	4EM	E:maj (G# E B)	.	.	voice
8cc-	to	.	.	.	.	.	.	.
8b-	know	.	.	4F#M	F#:maj (F# A# C#)	.	.	voice
8b-	the	.	.	.	.	.	.	.
=35	=35	=35	=35	=35	=35	=35	=35	=35
4.cc-	way	1r	.	2EM	E:maj (E G# B)	.	.	voice
8b-	home!	.	.	.	.	.	.	.
16a-	_	.	.	2F#M	F#:maj (F# A# C#)	.	.	voice
8.g-	_	.	.	.	.	.	.	.
4r	.	.	.	.	.	.	.	.
=36	=36	=36	=36	=36	=36	=36	=36	=36
4r	.	1r	.	2F#M	F#:maj (D# F# A# C#)	.	.	voice
8b-	All	.	.	.	.	.	.	.
8b-	we	.	.	.	.	.	.	.
8cc-	want	.	.	4BM	B:maj (D# B F#)	.	.	voice
8cc-	is	.	.	.	.	.	.	.
8b-	life	.	.	4F#M	F#:maj (D# F# A# C#)	.	.	voice
8b-	be-	.	.	.	.	.	.	.
=37	=37	=37	=37	=37	=37	=37	=37	=37
4.a-	-yond	1r	.	2EM	E:maj (E G# B)	newline	85.474	voice
[8g-	_	.	.	.	.	.	.	.
8g-]	_	.	.	2F#M	F#:maj (F# A# C#)	.	.	voice
8g-	the	.	.	.	.	.	.	.
8d-	Thun-	.	.	.	.	.	.	.
8e-	-der-	.	.	.	.	.	.	.
=38	=38	=38	=38	=38	=38	=38	=38	=38
4f-	-dome.	1r	.	1C#m	C#:min (C# E G#)	.	.	voice
4r	.	.	.	.	.	.	.	.
2r	.	.	.	.	.	.	.	.
=39	=39	=39	=39	=39	=39	=39	=39	=39
1r	.	1r	.	1C#m	C#:min (C# E G#)	.	.	voice
=40	=40	=40	=40	=40	=40	=40	=40	=40
*>Letter>A	*>Letter>A	*>Letter>A	*>Letter>A	*>Letter>A	*>Letter>A	*>Letter>A	*>Letter>A	*>Letter>A
*>Label>Verse	*>Label>Verse	*>Label>Verse	*>Label>Verse	*>Label>Verse	*>Label>Verse	*>Label>Verse	*>Label>Verse	*>Label>Verse
2r	.	1r	.	1BM	B:maj (B D# F#)	newline	92.735	voice
8A-	Loo-	.	.	.	.	.	.	.
8c-	-king	.	.	.	.	.	.	.
8e-	for	.	.	.	.	.	.	.
[8d-	some	.	.	.	.	.	.	.
=41	=41	=41	=41	=41	=41	=41	=41	=41
8d-]	_	1r	.	1F#M	F#:maj (F# A# C#)	.	.	voice
8e-	thing,	.	.	.	.	.	.	.
4r	.	.	.	.	.	.	.	.
2r	.	.	.	.	.	.	.	.
=42	=42	=42	=42	=42	=42	=42	=42	=42
2r	.	1r	.	1BM	B:maj (B D# F#)	.	.	voice
8A-	we	.	.	.	.	.	.	.
8c-	can	.	.	.	.	.	.	.
8e-	re-	.	.	.	.	.	.	.
[8d-	-ly	.	.	.	.	.	.	.
=43	=43	=43	=43	=43	=43	=43	=43	=43
8d-]	_	1r	.	1F#M	F#:maj (F# A# C#)	.	.	voice
16A-	on,	.	.	.	.	.	.	.
[16G-	_	.	.	.	.	.	.	.
8G-]	_	.	.	.	.	.	.	.
8r	.	.	.	.	.	.	.	.
2r	.	.	.	.	.	.	.	.
=44	=44	=44	=44	=44	=44	=44	=44	=44
4r	.	1r	.	1C#mm	C#:min11 (E C# B F#)	newline	102.454	voice
8r	.	.	.	.	.	.	.	.
8D-	There's	.	.	.	.	.	.	.
8A-	got	.	.	.	.	.	.	.
8c-	to	.	.	.	.	.	.	.
8e-	be	.	.	.	.	.	.	.
[8d-	some	.	.	.	.	.	.	.
=45	=45	=45	=45	=45	=45	=45	=45	=45
4d-]	_	1r	.	1F#M	F#:maj (F# A# C#)	.	.	voice
8c-	thing	.	.	.	.	.	.	.
[8B-	bet	.	.	.	.	.	.	.
8B-]	_	.	.	.	.	.	.	.
8A-	ter	.	.	.	.	.	.	.
8G-	out	.	.	.	.	.	.	.
[8A-	there	.	.	.	.	.	.	.
=46	=46	=46	=46	=46	=46	=46	=46	=46
1A-]	_	1r	.	1C#M	C#:maj (C# E# G#)	.	.	voice
=47	=47	=47	=47	=47	=47	=47	=47	=47
2r	.	1r	.	1C#M	C#:maj (C# E# G#)	.	.	voice
8r	.	.	.	.	.	.	.	.
4g-	Mmm,	.	.	.	.	.	.	.
[8a-	_	.	.	.	.	.	.	.
=48	=48	=48	=48	=48	=48	=48	=48	=48
2a-]	_	1r	.	1BM	B:maj (B D# F#)	newline	112.186	voice
8a-	love	.	.	.	.	.	.	.
8g-	and	.	.	.	.	.	.	.
8e-	com-	.	.	.	.	.	.	.
8g-	-pas-	.	.	.	.	.	.	.
=49	=49	=49	=49	=49	=49	=49	=49	=49
16d-	-sion,	1r	.	1F#M	F#:maj (F# A# C#)	.	.	voice
8.e-	_	.	.	.	.	.	.	.
4r	.	.	.	.	.	.	.	.
2r	.	.	.	.	.	.	.	.
=50	=50	=50	=50	=50	=50	=50	=50	=50
2r	.	1r	.	1BM	B:maj (B D# F#)	.	.	voice
8A-	their	.	.	.	.	.	.	.
8B-	day	.	.	.	.	.	.	.
8c-	is	.	.	.	.	.	.	.
8Aq	_	.	.	.	.	.	.	.
8B-	_	.	.	.	.	.	.	.
=51	=51	=51	=51	=51	=51	=51	=51	=51
8A-	_	1r	.	1F#M	F#:maj (F# A# C#)	.	.	voice
8G-	ming,	.	.	.	.	.	.	.
8r	.	.	.	.	.	.	.	.
8b-	(co	.	.	.	.	.	.	.
8a-	_	.	.	.	.	.	.	.
[8g-	ming	.	.	.	.	.	.	.
4g-]	)	.	.	.	.	.	.	.
=52	=52	=52	=52	=52	=52	=52	=52	=52
2r	.	1r	.	1C#mm	C#:min11 (E C# B F#)	newline	121.885	voice
8A-	all	.	.	.	.	.	.	.
8c-	else	.	.	.	.	.	.	.
8e-	are	.	.	.	.	.	.	.
[8d-	cast	.	.	.	.	.	.	.
=53	=53	=53	=53	=53	=53	=53	=53	=53
4d-]	_	1r	.	1F#M	F#:maj (F# A# C#)	.	.	voice
8c-	les	.	.	.	.	.	.	.
[8B-	built	.	.	.	.	.	.	.
8B-]	_	.	.	.	.	.	.	.
8A-	in	.	.	.	.	.	.	.
8G-	the	.	.	.	.	.	.	.
[8A-	air	.	.	.	.	.	.	.
=54	=54	=54	=54	=54	=54	=54	=54	=54
1A-]	_	1r	.	1C#M	C#:maj (C# E# G#)	.	.	voice
=55	=55	=55	=55	=55	=55	=55	=55	=55
2r	.	1r	.	1C#M	C#:maj (C# E# G#)	.	.	voice
4r	.	.	.	.	.	.	.	.
8a-	And	.	.	.	.	.	.	.
8b-	I	.	.	.	.	.	.	.
=56	=56	=56	=56	=56	=56	=56	=56	=56
*>Letter>B	*>Letter>B	*>Letter>B	*>Letter>B	*>Letter>B	*>Letter>B	*>Letter>B	*>Letter>B	*>Letter>B
*>Label>Prechorus	*>Label>Prechorus	*>Label>Prechorus	*>Label>Prechorus	*>Label>Prechorus	*>Label>Prechorus	*>Label>Prechorus	*>Label>Prechorus	*>Label>Prechorus
8cc-	won	1r	.	1EM	E:maj (E G# B)	newline	131.602	voice
8a-	_	.	.	.	.	.	.	.
8a-	der	.	.	.	.	.	.	.
8g-	when	.	.	.	.	.	.	.
16a-	we	.	.	.	.	.	.	.
16g-	_	.	.	.	.	.	.	.
8f-	_	.	.	.	.	.	.	.
8r	.	.	.	.	.	.	.	.
8cc-	are	.	.	.	.	.	.	.
=57	=57	=57	=57	=57	=57	=57	=57	=57
*M2/4	*	*M2/4	*	*M2/4	*M2/4	*M2/4	*M2/4	*M2/4
8b-	e-	2r	.	2F#M	F#:maj (F# A# C#)	.	.	voice
8a-	-ver	.	.	.	.	.	.	.
8g-	gon-	.	.	.	.	.	.	.
8a-	-na	.	.	.	.	.	.	.
=58	=58	=58	=58	=58	=58	=58	=58	=58
*M4/4	*	*M4/4	*	*M4/4	*M4/4	*M4/4	*M4/4	*M4/4
4.e-	change,	1r	.	1C#mm	C#:min9 (C# E B D#)	.	.	voice
16e-	change	.	.	.	.	.	.	.
16d-	_	.	.	.	.	.	.	.
16c-	_	.	.	.	.	.	.	.
8.A-	_	.	.	.	.	.	.	.
4r	.	.	.	.	.	.	.	.
=59	=59	=59	=59	=59	=59	=59	=59	=59
2r	.	1r	.	1C#mm	C#:min9 (C# E B D#)	.	.	voice
4r	.	.	.	.	.	.	.	.
8a-	Li-	.	.	.	.	.	.	.
8b-	-ving	.	.	.	.	.	.	.
=60	=60	=60	=60	=60	=60	=60	=60	=60
8cc-	un	1r	.	1EM	E:maj (E G# B)	newline	140.051	voice
8a-	_	.	.	.	.	.	.	.
8a-	der	.	.	.	.	.	.	.
8g-	the	.	.	.	.	.	.	.
16a-	fear,	.	.	.	.	.	.	.
16g-	_	.	.	.	.	.	.	.
8f-	_	.	.	.	.	.	.	.
8r	.	.	.	.	.	.	.	.
8cc-	'till	.	.	.	.	.	.	.
=61	=61	=61	=61	=61	=61	=61	=61	=61
*M2/4	*	*M2/4	*	*M2/4	*M2/4	*M2/4	*M2/4	*M2/4
8b-	no-	2r	.	2F#M	F#:maj (F# A# C#)	.	.	voice
8a-	-thing	.	.	.	.	.	.	.
8g-	else	.	.	.	.	.	.	.
8a-	re-	.	.	.	.	.	.	.
=62	=62	=62	=62	=62	=62	=62	=62	=62
*M4/4	*	*M4/4	*	*M4/4	*M4/4	*M4/4	*M4/4	*M4/4
1a-	-mains.	1r	.	1C#mm	C#:min9 (C# E B D#)	.	.	voice
=63	=63	=63	=63	=63	=63	=63	=63	=63
2r	.	1r	.	1C#mm	C#:min9 (C# E B D#)	.	.	voice
8cc-	All	.	.	.	.	.	.	.
8cc-	the	.	.	.	.	.	.	.
8cc-	chil-	.	.	.	.	.	.	.
8cc-	-dren	.	.	.	.	.	.	.
=64	=64	=64	=64	=64	=64	=64	=64	=64
4b-	say,	1r	.	2F#M	F#:maj (F# A# C#)	.	.	voice
8b-	we	.	.	.	.	.	.	.
8b-	don't	.	.	.	.	.	.	.
8cc-	need	.	.	4EM	E:maj (G# E B)	.	.	voice
8cc-	a-	.	.	.	.	.	.	.
8b-	-no-	.	.	4F#M	F#:maj (F# A# C#)	.	.	voice
8b-	-ther	.	.	.	.	.	.	.
=65	=65	=65	=65	=65	=65	=65	=65	=65
*>Letter>C	*>Letter>C	*>Letter>C	*>Letter>C	*>Letter>C	*>Letter>C	*>Letter>C	*>Letter>C	*>Letter>C
*>Label>Chorus	*>Label>Chorus	*>Label>Chorus	*>Label>Chorus	*>Label>Chorus	*>Label>Chorus	*>Label>Chorus	*>Label>Chorus	*>Label>Chorus
4.a-	he-	1r	.	2EM	E:maj (E G# B)	newline	151.015	voice
8g-	-ro!	.	.	.	.	.	.	.
2r	.	.	.	2F#M	F#:maj (F# A# C#)	.	.	voice
=66	=66	=66	=66	=66	=66	=66	=66	=66
4r	.	1r	.	2F#M	F#:maj (F# A# C#)	.	.	voice
8b-	We	.	.	.	.	.	.	.
8b-	don't	.	.	.	.	.	.	.
8cc-	need	.	.	4EM	E:maj (G# E B)	.	.	voice
8cc-	to	.	.	.	.	.	.	.
8b-	know	.	.	4F#M	F#:maj (F# A# C#)	.	.	voice
8b-	the	.	.	.	.	.	.	.
=67	=67	=67	=67	=67	=67	=67	=67	=67
4.cc-	way	1r	.	2EM	E:maj (E G# B)	.	.	voice
8b-	home!	.	.	.	.	.	.	.
16a-	_	.	.	2F#M	F#:maj (F# A# C#)	.	.	voice
8.g-	_	.	.	.	.	.	.	.
4r	.	.	.	.	.	.	.	.
=68	=68	=68	=68	=68	=68	=68	=68	=68
4r	.	1r	.	2F#M	F#:maj (D# F# A# C#)	.	.	voice
8b-	All	.	.	.	.	.	.	.
8b-	we	.	.	.	.	.	.	.
8cc-	want	.	.	4BM	B:maj (D# B F#)	.	.	voice
8cc-	is	.	.	.	.	.	.	.
8b-	life	.	.	4F#M	F#:maj (D# F# A# C#)	.	.	voice
8b-	be-	.	.	.	.	.	.	.
=69	=69	=69	=69	=69	=69	=69	=69	=69
4.a-	-yond	1r	.	2EM	E:maj (E G# B)	newline	160.767	voice
[8g-	_	.	.	.	.	.	.	.
8g-]	_	.	.	2F#M	F#:maj (F# A# C#)	.	.	voice
8g-	the	.	.	.	.	.	.	.
8d-	Thun-	.	.	.	.	.	.	.
8e-	-der-	.	.	.	.	.	.	.
=70	=70	=70	=70	=70	=70	=70	=70	=70
4f-	-dome.	1r	.	2C#m	C#:min (C# E G#)	.	.	voice
4r	.	.	.	.	.	.	.	.
2r	.	.	.	2BM	B:maj (B D# F#)	.	.	voice
=71	=71	=71	=71	=71	=71	=71	=71	=71
*>Letter>D	*>Letter>D	*>Letter>D	*>Letter>D	*>Letter>D	*>Letter>D	*>Letter>D	*>Letter>D	*>Letter>D
*>Label>Bridge	*>Label>Bridge	*>Label>Bridge	*>Label>Bridge	*>Label>Bridge	*>Label>Bridge	*>Label>Bridge	*>Label>Bridge	*>Label>Bridge
4r	.	1r	.	1AM	A:maj (A C# E)	newline	165.545	voice
8r	.	.	.	.	.	.	.	.
8dd-	So	.	.	.	.	.	.	.
8.dd-	what	.	.	.	.	.	.	.
[16cc-	do	.	.	.	.	.	.	.
16cc-]	_	.	.	.	.	.	.	.
16a-	we	.	.	.	.	.	.	.
[8dd-	do	.	.	.	.	.	.	.
=72	=72	=72	=72	=72	=72	=72	=72	=72
12dd-]	_	1r	.	1F#M	F#:maj (F# A# C#)	.	.	voice
12dd-	with	.	.	.	.	.	.	.
12dd-	our	.	.	.	.	.	.	.
8.dd-	lives?	.	.	.	.	.	.	.
16cc-	_	.	.	.	.	.	.	.
4b-	_	.	.	.	.	.	.	.
4r	.	.	.	.	.	.	.	.
=73	=73	=73	=73	=73	=73	=73	=73	=73
4r	.	1r	.	1AM	A:maj (A C# E)	.	.	voice
16r	.	.	.	.	.	.	.	.
16dd-	We	.	.	.	.	.	.	.
8dd-	leave	.	.	.	.	.	.	.
8.dd-	on-	.	.	.	.	.	.	.
16cc-	-ly	.	.	.	.	.	.	.
8r	.	.	.	.	.	.	.	.
16a	a	.	.	.	.	.	.	.
16a	mark!	.	.	.	.	.	.	.
=74	=74	=74	=74	=74	=74	=74	=74	=74
[4a-	_	1r	.	1C#m	C#:min (C# E G#)	.	.	voice
16a-]	_	.	.	.	.	.	.	.
16g-	_	.	.	.	.	.	.	.
8f-	_	.	.	.	.	.	.	.
2r	.	.	.	.	.	.	.	.
=75	=75	=75	=75	=75	=75	=75	=75	=75
6r	.	1r	.	1DM	D:maj (D F# A)	newline	175.302	voice
6r	.	.	.	.	.	.	.	.
6a	Will	.	.	.	.	.	.	.
6a	our	.	.	.	.	.	.	.
6a	sto-	.	.	.	.	.	.	.
6cc-	-ry	.	.	.	.	.	.	.
=76	=76	=76	=76	=76	=76	=76	=76	=76
4cc-	shine	1r	.	1EM	E:maj (D E G# B)	.	.	voice
12a-	_	.	.	.	.	.	.	.
6a-	like	.	.	.	.	.	.	.
12g-	a	.	.	.	.	.	.	.
12a-	light?	.	.	.	.	.	.	.
12g-	_	.	.	.	.	.	.	.
4f-	_	.	.	.	.	.	.	.
=77	=77	=77	=77	=77	=77	=77	=77	=77
6r	.	1r	.	1DM	D:maj (D F# A)	.	.	voice
6r	.	.	.	.	.	.	.	.
6a	Or	.	.	.	.	.	.	.
6a	end	.	.	.	.	.	.	.
6a	in	.	.	.	.	.	.	.
6cc-	the	.	.	.	.	.	.	.
=78	=78	=78	=78	=78	=78	=78	=78	=78
4cc-	dark?	1r	.	1EMm	E:7 (E G# B D)	.	.	voice
8r	.	.	.	.	.	.	.	.
16dd-	Is	.	.	.	.	.	.	.
16dd-	it	.	.	.	.	.	.	.
8dd-	all	.	.	.	.	.	.	.
8dd-	or	.	.	.	.	.	.	.
8dd-	no-	.	.	.	.	.	.	.
8dd-	-thing?	.	.	.	.	.	.	.
=79	=79	=79	=79	=79	=79	=79	=79	=79
16cc-	_	1r	.	1EMm	E:7 (E G# B D)	.	.	voice
8.b-	_	.	.	.	.	.	.	.
8b-	Doo-	.	.	.	.	.	.	.
8b-	-doo-	.	.	.	.	.	.	.
8cc-	-doo-	.	.	.	.	.	.	.
8cc-	-doo-	.	.	.	.	.	.	.
8b-	-doo-	.	.	.	.	.	.	.
8b-	-doo-	.	.	.	.	.	.	.
=80	=80	=80	=80	=80	=80	=80	=80	=80
*>Letter>C	*>Letter>C	*>Letter>C	*>Letter>C	*>Letter>C	*>Letter>C	*>Letter>C	*>Letter>C	*>Letter>C
*>Label>Solo	*>Label>Solo	*>Label>Solo	*>Label>Solo	*>Label>Solo	*>Label>Solo	*>Label>Solo	*>Label>Solo	*>Label>Solo
4.a-	-doo-	1r	.	2EM	E:maj (E G# B)	newline	187.408	saxophone
8g-	-doo...	.	.	.	.	.	.	.
2r	.	.	.	2F#M	F#:maj (F# A# C#)	.	.	saxophone
=81	=81	=81	=81	=81	=81	=81	=81	=81
1r	.	1r	.	2F#M	F#:maj (F# A# C#)	.	.	saxophone
.	.	.	.	4EM	E:maj (G# E B)	.	.	saxophone
.	.	.	.	4F#M	F#:maj (F# A# C#)	.	.	saxophone
=82	=82	=82	=82	=82	=82	=82	=82	=82
1r	.	1r	.	2EM	E:maj (E G# B)	.	.	saxophone
.	.	.	.	2F#M	F#:maj (F# A# C#)	.	.	saxophone
=83	=83	=83	=83	=83	=83	=83	=83	=83
1r	.	1r	.	4F#M	F#:maj (F# A# C#)	.	.	saxophone
.	.	.	.	4F#M	F#:maj (D# F# A# C#)	.	.	saxophone
.	.	.	.	4BM	B:maj (D# B F#)	.	.	saxophone
.	.	.	.	4F#M	F#:maj (D# F# A# C#)	.	.	saxophone
=84	=84	=84	=84	=84	=84	=84	=84	=84
1r	.	1r	.	2EM	E:maj (E G# B)	newline	197.153	saxophone
.	.	.	.	2F#M	F#:maj (F# A# C#)	.	.	saxophone
=85	=85	=85	=85	=85	=85	=85	=85	=85
1r	.	1r	.	2F#M	F#:maj (F# A# C#)	.	.	saxophone
.	.	.	.	4EM	E:maj (G# E B)	.	.	saxophone
.	.	.	.	4F#M	F#:maj (F# A# C#)	.	.	saxophone
=86	=86	=86	=86	=86	=86	=86	=86	=86
1r	.	1r	.	2EM	E:maj (E G# B)	.	.	saxophone
.	.	.	.	2F#M	F#:maj (F# A# C#)	.	.	saxophone
=87	=87	=87	=87	=87	=87	=87	=87	=87
4r	.	1r	.	2F#M	F#:maj (F# A# C#)	.	.	saxophone
8b-	We	.	.	.	.	.	.	.
8b-	don't	.	.	.	.	.	.	.
8cc-	need	.	.	4EM	E:maj (G# E B)	.	.	saxophone
8cc-	a-	.	.	.	.	.	.	.
8b-	-no-	.	.	4F#M	F#:maj (F# A# C#)	.	.	saxophone
8b-	-ther	.	.	.	.	.	.	.
=88	=88	=88	=88	=88	=88	=88	=88	=88
*>Letter>C	*>Letter>C	*>Letter>C	*>Letter>C	*>Letter>C	*>Letter>C	*>Letter>C	*>Letter>C	*>Letter>C
*>Label>Chorus	*>Label>Chorus	*>Label>Chorus	*>Label>Chorus	*>Label>Chorus	*>Label>Chorus	*>Label>Chorus	*>Label>Chorus	*>Label>Chorus
8a-	he-	1r	.	2EM	E:maj (E G# B)	newline	206.84	voice
8g-	-ro!	.	.	.	.	.	.	.
4r	.	.	.	.	.	.	.	.
8a-	(He-	.	.	2F#M	F#:maj (F# A# C#)	.	.	voice
8g-	-ro)	.	.	.	.	.	.	.
4r	.	.	.	.	.	.	.	.
=89	=89	=89	=89	=89	=89	=89	=89	=89
4r	.	1r	.	2F#M	F#:maj (F# A# C#)	.	.	voice
8b-	We	.	.	.	.	.	.	.
8b-	don't	.	.	.	.	.	.	.
8cc-	need	.	.	4EM	E:maj (G# E B)	.	.	voice
8cc-	to	.	.	.	.	.	.	.
8b-	know	.	.	4F#M	F#:maj (F# A# C#)	.	.	voice
8b-	the	.	.	.	.	.	.	.
=90	=90	=90	=90	=90	=90	=90	=90	=90
4.cc-	way	1r	.	2EM	E:maj (E G# B)	.	.	voice
8b-	home!	.	.	.	.	.	.	.
16a-	_	.	.	2F#M	F#:maj (F# A# C#)	.	.	voice
8b-	_	.	.	.	.	.	.	.
16a-	_	.	.	.	.	.	.	.
4g-	_	.	.	.	.	.	.	.
=91	=91	=91	=91	=91	=91	=91	=91	=91
4r	.	1r	.	2F#M	F#:maj (D# F# A# C#)	.	.	voice
8b-	All	.	.	.	.	.	.	.
8b-	we	.	.	.	.	.	.	.
8cc-	want	.	.	4BM	B:maj (D# B F#)	.	.	voice
8cc-	is	.	.	.	.	.	.	.
8b-	life	.	.	4F#M	F#:maj (D# F# A# C#)	.	.	voice
8b-	be-	.	.	.	.	.	.	.
=92	=92	=92	=92	=92	=92	=92	=92	=92
4.a-	-yond	1r	.	2EM	E:maj (E G# B)	newline	216.55	voice
8g-	_	.	.	.	.	.	.	.
4r	.	.	.	2F#M	F#:maj (F# A# C#)	.	.	voice
8a-	Thun-	.	.	.	.	.	.	.
8g-	-der-	.	.	.	.	.	.	.
=93	=93	=93	=93	=93	=93	=93	=93	=93
16a-	-dome!	1r	.	1C#m	C#:min (C# E G#)	.	.	voice
16g-	_	.	.	.	.	.	.	.
16a-	_	.	.	.	.	.	.	.
16g-	_	.	.	.	.	.	.	.
[4f-	_	.	.	.	.	.	.	.
2f-]	_	.	.	.	.	.	.	.
=94	=94	=94	=94	=94	=94	=94	=94	=94
2r	.	1r	.	1C#m	C#:min (C# E G#)	.	.	voice
8cc-	All	.	.	.	.	.	.	.
8cc-	the	.	.	.	.	.	.	.
8cc-	chil-	.	.	.	.	.	.	.
8cc-	-dren	.	.	.	.	.	.	.
=95	=95	=95	=95	=95	=95	=95	=95	=95
4b-	say!	4r	.	2F#M	F#:maj (F# A# C#)	.	.	voice
4r	.	8b- 8dd-	We	.	.	.	.	.
.	.	8b- 8dd-	don't	.	.	.	.	.
2r	.	8cc- 8ff-	need	4EM	E:maj (G# E B)	.	.	voice
.	.	8cc- 8ff-	a-	.	.	.	.	.
.	.	8b- 8dd-	-no-	4F#M	F#:maj (F# A# C#)	.	.	voice
.	.	8b- 8dd-	-ther	.	.	.	.	.
=96	=96	=96	=96	=96	=96	=96	=96	=96
*>Letter>C	*>Letter>C	*>Letter>C	*>Letter>C	*>Letter>C	*>Letter>C	*>Letter>C	*>Letter>C	*>Letter>C
*>Label>Chorus	*>Label>Chorus	*>Label>Chorus	*>Label>Chorus	*>Label>Chorus	*>Label>Chorus	*>Label>Chorus	*>Label>Chorus	*>Label>Chorus
2r	.	4.a- 4.cc-	he-	2EM	E:maj (E G# B)	newline	226.292	voice
.	.	[8g- [8b-	-ro!	.	.	.	.	.
12r	.	2g-] 2b-]	_	2F#M	F#:maj (F# A# C#)	.	.	voice
12b-	We	.	.	.	.	.	.	.
12a-	don't	.	.	.	.	.	.	.
12b-	need	.	.	.	.	.	.	.
12a-	a-	.	.	.	.	.	.	.
12b-	-no-	.	.	.	.	.	.	.
=97	=97	=97	=97	=97	=97	=97	=97	=97
12a-	-ther	4r	.	2F#M	F#:maj (F# A# C#)	.	.	voice
12b-	he	.	.	.	.	.	.	.
12a-	_	.	.	.	.	.	.	.
4g-	ro!	8b- 8dd-	We	.	.	.	.	.
.	.	8b- 8dd-	don't	.	.	.	.	.
2r	.	8cc- 8ff-	need	4EM	E:maj (G# E B)	.	.	voice
.	.	8cc- 8ff-	to	.	.	.	.	.
.	.	8b- 8dd-	know	4F#M	F#:maj (F# A# C#)	.	.	voice
.	.	8b- 8dd-	the	.	.	.	.	.
=98	=98	=98	=98	=98	=98	=98	=98	=98
2r	.	4.cc- 4.ff- 4.aa-	way	2EM	E:maj (E G# B)	.	.	voice
.	.	[8b- [8dd- [8gg-	home!	.	.	.	.	.
8r	.	2b-] 2dd-] 2gg-]	_	2F#M	F#:maj (F# A# C#)	.	.	voice
[4.b-	Mmm,	.	.	.	.	.	.	.
=99	=99	=99	=99	=99	=99	=99	=99	=99
4b-]	_	4r	.	2F#M	F#:maj (D# F# A# C#)	.	.	voice
8b-	all	8b- 8dd-	All	.	.	.	.	.
8b-	we	8b- 8dd-	we	.	.	.	.	.
8cc-	want	8cc- 8ee-	want	4BM	B:maj (D# B F#)	.	.	voice
8cc-	is	8cc- 8ee-	is	.	.	.	.	.
8b-	life	8b- 8dd-	life	4F#M	F#:maj (D# F# A# C#)	.	.	voice
8b-	be-	8b- 8dd-	be-	.	.	.	.	.
=100	=100	=100	=100	=100	=100	=100	=100	=100
4.a-	-yond,	4.a- 4.cc-	-yond	2EM	E:maj (E G# B)	newline	235.956	voice
8g-	_	[8g- [8b-	_	.	.	.	.	.
8r	.	2g-] 2b-]	...	2F#M	F#:maj (F# A# C#)	.	.	voice
8G-	the	.	.	.	.	.	.	.
8d-	Thun-	.	.	.	.	.	.	.
8e-	-der-	.	.	.	.	.	.	.
=101	=101	=101	=101	=101	=101	=101	=101	=101
4f-	-dome...	1r	.	1C#m	C#:min (C# E G#)	.	.	voice
4r	.	.	.	.	.	.	.	.
2r	.	.	.	.	.	.	.	.
=102	=102	=102	=102	=102	=102	=102	=102	=102
1r	.	1r	.	1C#m	C#:min (C# E G#)	.	.	voice
=103	=103	=103	=103	=103	=103	=103	=103	=103
*>Label>>Fadeout	*>Label>>Fadeout	*>Label>>Fadeout	*>Label>>Fadeout	*>Label>>Fadeout	*>Label>>Fadeout	*>Label>>Fadeout	*>Label>>Fadeout	*>Label>>Fadeout
1r	.	1r	.	1C#m	C#:min (C# E G#)	newline	243.101	synthesizer
=104	=104	=104	=104	=104	=104	=104	=104	=104
1r	.	1r	.	1C#m	C#:min (C# E G#)	.	.	synthesizer
=105	=105	=105	=105	=105	=105	=105	=105	=105
1r	.	1r	.	1C#m	C#:min (C# E G#)	.	.	synthesizer
=106	=106	=106	=106	=106	=106	=106	=106	=106
1r	.	1r	.	1C#m	C#:min (C# E G#)	.	.	synthesizer
r;	.	r;	.	1r;	r	.	253.074	r
r;	.	r;	.	1r;	r	.	255.504	r
*-	*-	*-	*-	*-	*-	*-	*-	*-
!!!BillboardChartDate: 1985/09/07
!!!BillboardPeak: 2
!!!BillboardWeeksOnChart: 18
!!!COC: Tina Turner
!!!ENC: Nathaniel Condit-Schultz
!!!EST: Awating manual error checking and editing.
!!!OTL: We Don't Need Another Hero (Thunderdome)
!!!RDF**chordsym: original McGill chord annotation + (implied pitch class set, with bass pitch in first position)
!!!RDF**harmony: **recip + pitch class of root + harmonic quality
!!!RDF**leadinstrument: original McGill primary instrumentation annotation
!!!RDF**phrase: newline = linebreak in original McGill transcription
!!!RDF**timestamp: McGill audio timestamp in seconds
!!!RDT: 2017/01/12/
!!!SampleActualRank: 3
!!!SampleID#: 1031
!!!SampleTargetRank: 1
